Otagle3/Assets/ikonySvG/SzablonPl.svg

<?xml version="1.0" encoding="UTF-8" standalone="no"?>
<svg
   xmlns:osb="http://www.openswatchbook.org/uri/2009/osb"
   xmlns:dc="http://purl.org/dc/elements/1.1/"
   xmlns:cc="http://creativecommons.org/ns#"
   xmlns:rdf="http://www.w3.org/1999/02/22-rdf-syntax-ns#"
   xmlns:svg="http://www.w3.org/2000/svg"
   xmlns="http://www.w3.org/2000/svg"
   id="svg47"
   version="1.1"
   viewBox="0 0 52.758294 52.758296"
   height="199.40143"
   width="199.40143">
  <defs
     id="defs42">
    <pattern
       id="EMFhbasepattern"
       patternUnits="userSpaceOnUse"
       width="6"
       height="6"
       x="0"
       y="0" />
    <marker
       style="overflow:visible"
       id="Arrow1Mend-5-0"
       refX="0"
       refY="0"
       orient="auto">
      <path
         transform="matrix(-0.4,0,0,-0.4,-4,0)"
         style="fill:#000000;fill-opacity:1;fill-rule:evenodd;stroke:#000000;stroke-width:1.00000003pt;stroke-opacity:1"
         d="M 0,0 5,-5 -12.5,0 5,5 Z"
         id="path1146-3-3" />
    </marker>
    <marker
       style="overflow:visible"
       id="Arrow1Mend-5-3"
       refX="0"
       refY="0"
       orient="auto">
      <path
         transform="matrix(-0.4,0,0,-0.4,-4,0)"
         style="fill:#000000;fill-opacity:1;fill-rule:evenodd;stroke:#000000;stroke-width:1.00000003pt;stroke-opacity:1"
         d="M 0,0 5,-5 -12.5,0 5,5 Z"
         id="path1146-3-9" />
    </marker>
    <marker
       orient="auto"
       refY="0"
       refX="0"
       id="Arrow1Mend-5-0-4"
       style="overflow:visible">
      <path
         id="path1146-3-3-8"
         d="M 0,0 5,-5 -12.5,0 5,5 Z"
         style="fill:#ffffff;fill-opacity:1;fill-rule:evenodd;stroke:#ffffff;stroke-width:1.00000003pt;stroke-opacity:1"
         transform="matrix(-0.4,0,0,-0.4,-4,0)" />
    </marker>
    <marker
       orient="auto"
       refY="0"
       refX="0"
       id="Arrow1Mend-5-3-8"
       style="overflow:visible">
      <path
         id="path1146-3-9-5"
         d="M 0,0 5,-5 -12.5,0 5,5 Z"
         style="fill:#ffffff;fill-opacity:1;fill-rule:evenodd;stroke:#ffffff;stroke-width:1.00000003pt;stroke-opacity:1"
         transform="matrix(-0.4,0,0,-0.4,-4,0)" />
    </marker>
    <marker
       style="overflow:visible"
       id="Arrow1Mend"
       refX="0"
       refY="0"
       orient="auto">
      <path
         transform="matrix(-0.4,0,0,-0.4,-4,0)"
         style="fill:#000000;fill-opacity:1;fill-rule:evenodd;stroke:#000000;stroke-width:1.00000003pt;stroke-opacity:1"
         d="M 0,0 5,-5 -12.5,0 5,5 Z"
         id="path1146" />
    </marker>
    <marker
       orient="auto"
       refY="0"
       refX="0"
       id="Arrow1Mend-5"
       style="overflow:visible">
      <path
         id="path1146-3"
         d="M 0,0 5,-5 -12.5,0 5,5 Z"
         style="fill:#ffffff;fill-opacity:1;fill-rule:evenodd;stroke:#ffffff;stroke-width:1.00000003pt;stroke-opacity:1"
         transform="matrix(-0.4,0,0,-0.4,-4,0)" />
    </marker>
    <marker
       style="overflow:visible"
       id="Arrow1Mstart"
       refX="0"
       refY="0"
       orient="auto">
      <path
         transform="matrix(0.4,0,0,0.4,4,0)"
         style="fill:#000000;fill-opacity:1;fill-rule:evenodd;stroke:#000000;stroke-width:1.00000003pt;stroke-opacity:1"
         d="M 0,0 5,-5 -12.5,0 5,5 Z"
         id="path1143" />
    </marker>
    <marker
       orient="auto"
       refY="0"
       refX="0"
       id="Arrow1Mstart-1"
       style="overflow:visible">
      <path
         id="path1143-7"
         d="M 0,0 5,-5 -12.5,0 5,5 Z"
         style="fill:#ffffff;fill-opacity:1;fill-rule:evenodd;stroke:#ffffff;stroke-width:1.00000003pt;stroke-opacity:1"
         transform="matrix(0.4,0,0,0.4,4,0)" />
    </marker>
    <marker
       style="overflow:visible"
       id="Arrow1Lend"
       refX="0"
       refY="0"
       orient="auto">
      <path
         transform="matrix(-0.8,0,0,-0.8,-10,0)"
         style="fill:#000000;fill-opacity:1;fill-rule:evenodd;stroke:#000000;stroke-width:1.00000003pt;stroke-opacity:1"
         d="M 0,0 5,-5 -12.5,0 5,5 Z"
         id="path1140" />
    </marker>
    <marker
       style="overflow:visible"
       id="Arrow1Lstart"
       refX="0"
       refY="0"
       orient="auto">
      <path
         transform="matrix(0.8,0,0,0.8,10,0)"
         style="fill:#000000;fill-opacity:1;fill-rule:evenodd;stroke:#000000;stroke-width:1.00000003pt;stroke-opacity:1"
         d="M 0,0 5,-5 -12.5,0 5,5 Z"
         id="path1137" />
    </marker>
    <marker
       orient="auto"
       refY="0"
       refX="0"
       id="Arrow1Lend-5"
       style="overflow:visible">
      <path
         id="path1140-4"
         d="M 0,0 5,-5 -12.5,0 5,5 Z"
         style="fill:#ffffff;fill-opacity:1;fill-rule:evenodd;stroke:#ffffff;stroke-width:1.00000003pt;stroke-opacity:1"
         transform="matrix(-0.8,0,0,-0.8,-10,0)" />
    </marker>
    <marker
       orient="auto"
       refY="0"
       refX="0"
       id="Arrow1Lstart-93"
       style="overflow:visible">
      <path
         id="path1137-7"
         d="M 0,0 5,-5 -12.5,0 5,5 Z"
         style="fill:#ffffff;fill-opacity:1;fill-rule:evenodd;stroke:#ffffff;stroke-width:1.00000003pt;stroke-opacity:1"
         transform="matrix(0.8,0,0,0.8,10,0)" />
    </marker>
    <linearGradient
       id="linearGradient4460"
       osb:paint="solid">
      <stop
         style="stop-color:#db3b3b;stop-opacity:1;"
         offset="0"
         id="stop4458" />
    </linearGradient>
  </defs>
  <metadata
     id="metadata45">
    <rdf:RDF>
      <cc:Work
         rdf:about="">
        <dc:format>image/svg+xml</dc:format>
        <dc:type
           rdf:resource="http://purl.org/dc/dcmitype/StillImage" />
        <dc:title></dc:title>
      </cc:Work>
    </rdf:RDF>
  </metadata>
  <g
     id="g8556"
     transform="translate(49.836509,-375.23204)">
    <g
       id="g5305">
      <text
         xml:space="preserve"
         style="font-size:6.3499999px;line-height:1.25;font-family:voestalpine;-inkscape-font-specification:voestalpine;text-align:center;letter-spacing:0px;word-spacing:0px;text-anchor:middle;display:inline;stroke-width:0.26458299"
         x="-23.328035"
         y="425.50534"
         id="text858-5-8-2"><tspan
           id="tspan921-9-5"
           x="-23.328035"
           y="425.50534"
           style="font-size:6.3499999px;text-align:center;text-anchor:middle;fill:#ffffff;fill-opacity:1;stroke-width:0.26458299">Rejestr zmian</tspan></text>
      <g
         id="g3953-0"
         transform="translate(-156.49748,405.79246)"
         style="display:inline">
        <path
           style="fill:#ffffff;fill-opacity:1;stroke:none;stroke-width:0;stroke-miterlimit:4;stroke-dasharray:none;stroke-opacity:1"
           d="m 131.72154,-16.34338 h 2.1158 v 2.107756 c 0,0.168943 0.13676,0.305706 0.30571,0.305706 h 2.41346 c 0.16894,0 0.3057,-0.136763 0.3057,-0.305706 v -2.115801 h 2.09972 c 0.16894,0 0.3057,-0.136763 0.3057,-0.305705 v -2.405417 c 0,-0.168942 -0.13676,-0.305705 -0.3057,-0.305705 h -2.11581 v -2.107757 c 0,-0.168942 -0.13676,-0.305705 -0.3057,-0.305705 h -2.41346 c -0.16895,0 -0.30571,0.136763 -0.30571,0.305705 v 2.115802 h -2.09971 c -0.16894,0 -0.3057,0.136762 -0.3057,0.305705 v 2.413462 c 0.008,0.160897 0.13676,0.29766 0.3057,0.29766 z m 0.30571,-2.413462 h 2.10775 c 0.16894,0 0.30571,-0.136763 0.30571,-0.305705 v -2.107757 h 1.81009 v 2.107757 c 0,0.168942 0.13677,0.305705 0.30571,0.305705 h 2.1158 v 1.810096 h -2.12385 c -0.16894,0 -0.3057,0.136763 -0.3057,0.305706 v 2.115801 h -1.8101 v -2.123846 c 0,-0.168943 -0.13676,-0.305706 -0.3057,-0.305706 h -2.1158 v -1.802051 z"
           id="path968-0" />
        <path
           style="fill:#ffffff;fill-opacity:1;stroke:none;stroke-width:0;stroke-miterlimit:4;stroke-dasharray:none;stroke-opacity:1"
           d="m 140.30095,-23.382644 h -16.08974 c -0.16894,0 -0.29766,0.128718 -0.29766,0.297661 V 1.0496339 c 0,0.1689423 0.13676,0.3057052 0.3057,0.3057052 H 140.309 c 0.16894,0 0.3057,-0.1367629 0.3057,-0.3057052 V -23.084983 c -0.008,-0.168943 -0.1448,-0.297661 -0.31375,-0.297661 z M 140.00329,0.75197364 H 124.51691 V -22.779278 h 15.48638 z"
           id="path970-0" />
        <path
           style="fill:#ffffff;fill-opacity:1;stroke:none;stroke-width:0;stroke-miterlimit:4;stroke-dasharray:none;stroke-opacity:1"
           d="m 127.42916,-8.2985078 h 9.65384 c 0.16895,0 0.30571,-0.1367628 0.30571,-0.3057052 0,-0.1689423 -0.13676,-0.3057051 -0.30571,-0.3057051 h -9.65384 c -0.16895,0 -0.30571,0.1367628 -0.30571,0.3057051 0,0.1689424 0.13676,0.3057052 0.30571,0.3057052 z"
           id="path972-0" />
        <path
           style="fill:#ffffff;fill-opacity:1;stroke:none;stroke-width:0;stroke-miterlimit:4;stroke-dasharray:none;stroke-opacity:1"
           d="m 127.42916,-11.516457 h 6.43589 c 0.16895,0 0.30571,-0.136763 0.30571,-0.305705 0,-0.168942 -0.13676,-0.305705 -0.30571,-0.305705 h -6.43589 c -0.16895,0 -0.30571,0.136763 -0.30571,0.305705 0,0.168942 0.13676,0.305705 0.30571,0.305705 z"
           id="path974-1" />
        <path
           style="fill:#ffffff;fill-opacity:1;stroke:none;stroke-width:0;stroke-miterlimit:4;stroke-dasharray:none;stroke-opacity:1"
           d="m 127.42916,-5.0805588 h 9.65384 c 0.16895,0 0.30571,-0.1367629 0.30571,-0.3057052 0,-0.1689423 -0.13676,-0.3057052 -0.30571,-0.3057052 h -9.65384 c -0.16895,0 -0.30571,0.1367629 -0.30571,0.3057052 0,0.1689423 0.13676,0.3057052 0.30571,0.3057052 z"
           id="path976-0" />
        <path
           style="fill:#ffffff;fill-opacity:1;stroke:none;stroke-width:0;stroke-miterlimit:4;stroke-dasharray:none;stroke-opacity:1"
           d="m 127.42916,-1.8626099 h 9.65384 c 0.16895,0 0.30571,-0.1367628 0.30571,-0.3057051 0,-0.1689424 -0.13676,-0.3057052 -0.30571,-0.3057052 h -9.65384 c -0.16895,0 -0.30571,0.1367628 -0.30571,0.3057052 0,0.1689423 0.13676,0.3057051 0.30571,0.3057051 z"
           id="path978-0" />
      </g>
      <g
         id="g1466"
         style="display:inline"
         transform="translate(-974.67758,403.05073)">
        <rect
           y="-27.584515"
           x="925.36603"
           height="52.395985"
           width="52.395985"
           id="rect835-2-0-2-8-1-5-6-8-9-7-3-0-5-5-1-5-4"
           style="fill:#ffec8e;fill-opacity:1;stroke:#000000;stroke-width:0.520679;stroke-linecap:round;stroke-miterlimit:4;stroke-dasharray:none;paint-order:fill markers stroke" />
        <text
           xml:space="preserve"
           style="font-size:6.3499999px;line-height:1.25;font-family:voestalpine;-inkscape-font-specification:voestalpine;text-align:center;letter-spacing:0px;word-spacing:0px;text-anchor:middle;fill:#000000;fill-opacity:1;stroke-width:0.26458299"
           x="951.51538"
           y="23.857283"
           id="text858-5-83-73-7-0-7-0"><tspan
             id="tspan921-84-3-09-4-1-7"
             x="951.51538"
             y="23.857283"
             style="font-size:6.3499999px;text-align:center;text-anchor:middle;fill:#000000;fill-opacity:1;stroke-width:0.26458299">Szablon PL</tspan></text>
        <g
           style="fill:#000000;fill-opacity:1"
           id="g4822"
           transform="translate(-202.72125)">
          <g
             style="fill:#000000;fill-opacity:1"
             id="g1993"
             transform="matrix(0.26458333,0,0,0.26458333,1141.0561,-23.760217)">
            <g
               id="g1978"
               style="fill:#000000;fill-opacity:1">
              <path
                 id="path1976"
                 d="M 82.188,100 H 16.725 V 99.967 C 7.46,99.404 0.083,91.701 0,82.281 v 0 V 0 H 74.377 V 64.245 H 100 V 82.12 C 100,91.979 92.01,100 82.188,100 Z M 33.798,90 H 82.189 C 86.496,90 90,86.465 90,82.12 V 74.245 H 35.623 v 7.875 c 0,2.826 -0.657,5.501 -1.825,7.88 z M 10,82.12 c 0,4.345 3.504,7.88 7.812,7.88 4.308,0 7.811,-3.535 7.811,-7.88 V 64.245 H 64.377 V 10 H 10 Z"
                 style="fill:#000000;fill-opacity:1" />
            </g>
            <path
               id="path1980"
               d="m 37.374,18.495 c -2.849,5.142 -8.52,5.424 -13.626,5.424 0,0 0,7.486 0,14.201 0,7.983 2.089,10.968 5.442,12.531 5.124,2.39 8.184,4.349 8.184,4.349 0,0 3.06,-1.959 8.184,-4.348 C 48.911,49.088 51,46.103 51,38.12 c 0,-6.715 0,-14.201 0,-14.201 -5.105,0 -10.777,-0.282 -13.626,-5.424 z"
               style="fill:#000000;fill-opacity:1" />
          </g>
          <g
             aria-label="PL"
             id="text1997"
             style="font-size:5.64444017px;line-height:1.25;font-family:voestalpine;-inkscape-font-specification:voestalpine;letter-spacing:0px;word-spacing:0px;fill:#000000;fill-opacity:1;stroke:none;stroke-width:0.26458299;stroke-opacity:1"
             transform="translate(1126.1531,-900.44973)">
            <path
               d="m 22.185054,884.52998 h 1.134533 q 0.316088,0 0.570088,0.0847 0.259644,0.0847 0.440266,0.24271 0.180622,0.15805 0.276578,0.38947 0.1016,0.22578 0.1016,0.508 0,0.28222 -0.1016,0.508 -0.09596,0.22577 -0.276578,0.38382 -0.180622,0.15804 -0.440266,0.24835 -0.254,0.0847 -0.570088,0.0847 h -0.620889 v 1.55787 h -0.513644 z m 1.117599,1.97556 q 0.434622,0 0.654755,-0.19756 0.225778,-0.19755 0.225778,-0.55315 0,-0.3556 -0.225778,-0.55316 -0.220133,-0.19755 -0.654755,-0.19755 h -0.603955 v 1.50142 z"
               style="fill:#ffec8e;fill-opacity:1;stroke:none;stroke-width:0.26458299;stroke-opacity:1"
               id="path1999" />
            <path
               d="m 25.426198,884.52998 h 0.513644 v 3.5052 h 1.755421 v 0.50236 h -2.269065 z"
               style="fill:#ffec8e;fill-opacity:1;stroke:none;stroke-width:0.26458299;stroke-opacity:1"
               id="path2001" />
          </g>
        </g>
      </g>
    </g>
  </g>
</svg>

<svg id="SVGRoot" width="206px" height="206px" version="1.1" viewBox="0 0 206 206" xmlns="http://www.w3.org/2000/svg">
 <g transform="matrix(3.7795 0 0 3.7795 -3492.7 108.24)">
  <rect x="925.37" y="-27.585" width="52.396" height="52.396" fill="#ffec8e" stroke="#000" stroke-linecap="round" stroke-width=".52068" style="paint-order:fill markers stroke"/>
  <text x="951.51538" y="21.557472" fill="#000000" font-family="voestalpine" font-size="6.35px" letter-spacing="0px" stroke-width=".26458" text-align="center" text-anchor="middle" word-spacing="0px" style="line-height:1.25" xml:space="preserve"><tspan x="951.51538" y="21.557472" fill="#000000" font-family="sans-serif" font-size="4.9389px" stroke-width=".26458" text-align="center" text-anchor="middle">Szablon PL</tspan></text>
  <g transform="translate(-202.72)">
   <g transform="matrix(.26458 0 0 .26458 1141.1 -23.76)">
    <path d="m82.188 100h-65.463v-.033c-9.265-.563-16.642-8.266-16.725-17.686v-82.281h74.377v64.245h25.623v17.875c0 9.859-7.99 17.88-17.812 17.88zm-48.39-10h48.391c4.307 0 7.811-3.535 7.811-7.88v-7.875h-54.377v7.875c0 2.826-.657 5.501-1.825 7.88zm-23.798-7.88c0 4.345 3.504 7.88 7.812 7.88s7.811-3.535 7.811-7.88v-17.875h38.754v-54.245h-54.377z"/>
    <path d="m37.374 18.495c-2.849 5.142-8.52 5.424-13.626 5.424v14.201c0 7.983 2.089 10.968 5.442 12.531 5.124 2.39 8.184 4.349 8.184 4.349s3.06-1.959 8.184-4.348c3.353-1.564 5.442-4.549 5.442-12.532v-14.201c-5.105 0-10.777-.282-13.626-5.424z"/>
   </g>
   <g transform="translate(1126.2 -900.45)" fill="#ffec8e" aria-label="PL">
    <path d="m22.185 884.53h1.1345q.31609 0 .57009.0847.25964.0847.44027.24271.18062.15805.27658.38947.1016.22578.1016.508t-.1016.508q-.09596.22577-.27658.38382-.18062.15804-.44027.24835-.254.0847-.57009.0847h-.62089v1.5579h-.51364zm1.1176 1.9756q.43462 0 .65476-.19756.22578-.19755.22578-.55315t-.22578-.55316q-.22013-.19755-.65476-.19755h-.60396v1.5014z"/>
    <path d="m25.426 884.53h.51364v3.5052h1.7554v.50236h-2.2691z"/>
   </g>
  </g>
 </g>
</svg>
